source/img/vector/traktor-7-vector.svg

<svg width="299" height="167" viewBox="0 0 299 167" fill="none" xmlns="http://www.w3.org/2000/svg">
<circle cx="94.8322" cy="129.217" r="30.325" stroke="#A0A1A2" stroke-width="13.9519"/>
<circle cx="94.5189" cy="129.532" r="17.993" stroke="#A0A1A2" stroke-width="6.64375"/>
<circle cx="95.7725" cy="118.248" r="1.25381" fill="#A0A1A2"/>
<circle cx="90.7571" cy="119.502" r="1.25381" fill="#A0A1A2"/>
<circle cx="90.7567" cy="139.564" r="1.25381" fill="#A0A1A2"/>
<circle cx="86.996" cy="137.057" r="1.25381" fill="#A0A1A2"/>
<circle cx="104.551" cy="136.428" r="1.25381" fill="#A0A1A2"/>
<circle cx="106.43" cy="131.413" r="1.25381" fill="#A0A1A2"/>
<circle r="1.25381" transform="matrix(-1 0 0 1 84.4882 132.04)" fill="#A0A1A2"/>
<circle cx="106.43" cy="126.396" r="1.25381" fill="#A0A1A2"/>
<circle r="1.25381" transform="matrix(-1 0 0 1 84.4882 127.025)" fill="#A0A1A2"/>
<circle cx="104.551" cy="122.635" r="1.25381" fill="#A0A1A2"/>
<circle r="1.25381" transform="matrix(-1 0 0 1 86.3673 122.635)" fill="#A0A1A2"/>
<circle cx="100.789" cy="119.502" r="1.25381" fill="#A0A1A2"/>
<circle cx="100.789" cy="139.564" r="1.25381" fill="#A0A1A2"/>
<circle cx="95.7724" cy="140.818" r="1.25381" fill="#A0A1A2"/>
<circle cx="248.519" cy="129.746" r="17.993" stroke="#A0A1A2" stroke-width="6.64375"/>
<circle cx="248.832" cy="129.432" r="30.325" stroke="#A0A1A2" stroke-width="13.9519"/>
<circle cx="248.519" cy="118.463" r="1.25381" fill="#A0A1A2"/>
<circle cx="243.503" cy="119.717" r="1.25381" fill="#A0A1A2"/>
<circle cx="243.504" cy="139.779" r="1.25381" fill="#A0A1A2"/>
<circle cx="239.742" cy="137.271" r="1.25381" fill="#A0A1A2"/>
<circle cx="257.297" cy="136.643" r="1.25381" fill="#A0A1A2"/>
<circle cx="259.176" cy="131.628" r="1.25381" fill="#A0A1A2"/>
<circle r="1.25381" transform="matrix(-1 0 0 1 237.234 132.255)" fill="#A0A1A2"/>
<circle cx="259.176" cy="126.611" r="1.25381" fill="#A0A1A2"/>
<circle r="1.25381" transform="matrix(-1 0 0 1 237.234 127.24)" fill="#A0A1A2"/>
<circle cx="257.297" cy="122.85" r="1.25381" fill="#A0A1A2"/>
<circle r="1.25381" transform="matrix(-1 0 0 1 239.113 122.85)" fill="#A0A1A2"/>
<circle cx="253.535" cy="119.717" r="1.25381" fill="#A0A1A2"/>
<circle cx="253.535" cy="139.779" r="1.25381" fill="#A0A1A2"/>
<circle cx="248.518" cy="141.033" r="1.25381" fill="#A0A1A2"/>
<path fill-rule="evenodd" clip-rule="evenodd" d="M4.82477 126.611C0.311038 126.36 0.227451 121.909 0.749873 119.715L7.01949 72.3834L42.5441 64.44L40.8708 64.8584V65.1718L39.9304 72.6947L10.1523 77.083V116.578C10.4658 117.832 11.9077 120.152 15.1676 119.399L60.6184 106.548L61.5587 104.353L37.5521 110.842L42.1244 74.2627H42.122L42.1246 74.262L43.3756 64.2541L107.952 49.8148L103.563 16.5887L100.115 10.9465H96.6672V9.69271H126.445V0.916016H131.461V9.69238H130.444V16.2749H107.561L107.875 19.096H130.13V21.9171H126.996V78.9656H116.965L111.95 49.8144L108.502 50.4413L114.144 83.9809L107.875 81.4732H93.456V84.6078H107.875L132.951 102.788L139.534 118.774V129.745V130.059H142.982V118.461L135.772 101.848L115.084 85.5481H182.24L182.24 85.5485L186.942 104.356H207.316L225.497 81.4736H260.29L263.111 73.6372V68.9354L266.872 61.0991H269.067L270.947 62.3529V65.8009L273.455 71.7565L276.903 81.4736L280.037 85.5485V89.3099L288.814 98.0866L288.187 99.3404H285.155L274.32 83.668H230.123L212.883 105.923V115.538C212.798 115.787 212.719 116.03 212.645 116.267H209.197H189.763V124.73C189.763 128.492 185.792 129.85 183.807 130.059H165.314V139.776H146.506V130.059H134.595C133.09 101.221 112.235 91.5041 101.996 90.2502H86.0098L76.9196 93.6982L72.5313 94.6386L70.0179 98.0261L74.9623 82.4124L69.0067 83.3528L66.8125 101.22H67.6486L65.3218 104.356H61.5604L53.4106 127.865H49.9626V131.626H30.842V126.611H4.82477ZM39.8412 74.9022L12.66 78.9638V115.638C12.66 117.142 14.3317 117.101 15.1676 116.892L34.7268 111.605L39.8412 74.9022ZM291.873 109.058L290.966 107.746L296.964 104.356L298.531 106.55L290.381 111.565L289.755 114.073L285.366 113.446V111.565C275.586 94.2625 257.051 90.1458 249.006 90.2502C232.538 89.5101 222.112 99.0772 216.644 107.796V105.923L232.317 86.1756H271.185L283.723 103.729L289.365 111.565L291.873 109.058ZM134.832 16.2749V9.69271H165.94L167.459 16.2749H134.832ZM134.832 19.096H168.11L176.284 54.5166L180.647 56.0091L186.865 81.4732L186.081 82.1005H186.001L185.455 82.6015L185.298 82.7271H137.966V21.9171H134.832V19.096ZM190.313 81.4732L183.768 57.0767L188.196 58.5915L191.33 82.1005H189.686L190.313 81.4732ZM79.3506 90.8767H80.291L88.4408 79.2789L91.2619 78.0251L111.323 75.8309V74.2637L91.2619 76.4578L87.187 78.0251L79.3506 90.8767ZM138.043 20.3496H163.2L170.769 79.9058H138.043V20.3496ZM139.924 22.2303V78.0251H168.634L161.543 22.2303H139.924ZM143.055 25.0518H159.668V46.9935H154.652V67.6814H143.055V25.0518ZM262.797 81.1582L264.678 74.2622L265.618 72.0681L267.185 71.7546L268.753 69.247L269.693 67.9932L274.708 80.2178V81.4717L262.797 81.1582ZM264.677 70.5004L264.363 68.9332L266.871 63.6044L268.752 62.9775L270.005 63.9179L269.692 66.1121L266.557 70.5004H264.677ZM149.011 88.9961H146.505V129.745H149.011L149.011 137.266H162.176V129.745H164.683V88.9961H162.176H149.012H149.011ZM162.176 91.5037H149.012V99.6533H162.176V91.5037ZM162.176 102.161V109.685H149.012V102.161H162.176ZM162.176 112.192H149.012V119.715H162.176V112.192ZM162.176 122.222H149.012V129.743H162.176V122.222ZM34.6002 87.1143H32.0926L29.8984 108.116L32.0926 107.489L34.6002 87.1143ZM50.2744 85.2348L44.6322 85.8617L42.1246 104.982L48.3937 103.415L50.2744 85.2348ZM58.9762 84.6079L64.6183 83.981L62.7376 102.161L56.4685 103.729L58.9762 84.6079ZM68.0663 77.3971V74.8895L89.6946 73.0088V75.5164L68.0663 77.3971Z" fill="#A0A1A2"/>
</svg>

<svg width="299" height="167" fill="none" xmlns="http://www.w3.org/2000/svg"><circle cx="94.832" cy="129.217" r="30.325" stroke="#A0A1A2" stroke-width="13.952"/><circle cx="94.519" cy="129.532" r="17.993" stroke="#A0A1A2" stroke-width="6.644"/><circle cx="95.772" cy="118.248" r="1.254" fill="#A0A1A2"/><circle cx="90.757" cy="119.502" r="1.254" fill="#A0A1A2"/><circle cx="90.757" cy="139.564" r="1.254" fill="#A0A1A2"/><circle cx="86.996" cy="137.057" r="1.254" fill="#A0A1A2"/><circle cx="104.551" cy="136.428" r="1.254" fill="#A0A1A2"/><circle cx="106.43" cy="131.413" r="1.254" fill="#A0A1A2"/><circle r="1.254" transform="matrix(-1 0 0 1 84.488 132.04)" fill="#A0A1A2"/><circle cx="106.43" cy="126.396" r="1.254" fill="#A0A1A2"/><circle r="1.254" transform="matrix(-1 0 0 1 84.488 127.025)" fill="#A0A1A2"/><circle cx="104.551" cy="122.635" r="1.254" fill="#A0A1A2"/><circle r="1.254" transform="matrix(-1 0 0 1 86.367 122.635)" fill="#A0A1A2"/><circle cx="100.789" cy="119.502" r="1.254" fill="#A0A1A2"/><circle cx="100.789" cy="139.564" r="1.254" fill="#A0A1A2"/><circle cx="95.772" cy="140.818" r="1.254" fill="#A0A1A2"/><circle cx="248.519" cy="129.746" r="17.993" stroke="#A0A1A2" stroke-width="6.644"/><circle cx="248.832" cy="129.432" r="30.325" stroke="#A0A1A2" stroke-width="13.952"/><circle cx="248.519" cy="118.463" r="1.254" fill="#A0A1A2"/><circle cx="243.503" cy="119.717" r="1.254" fill="#A0A1A2"/><circle cx="243.504" cy="139.779" r="1.254" fill="#A0A1A2"/><circle cx="239.742" cy="137.271" r="1.254" fill="#A0A1A2"/><circle cx="257.297" cy="136.643" r="1.254" fill="#A0A1A2"/><circle cx="259.176" cy="131.628" r="1.254" fill="#A0A1A2"/><circle r="1.254" transform="matrix(-1 0 0 1 237.234 132.255)" fill="#A0A1A2"/><circle cx="259.176" cy="126.611" r="1.254" fill="#A0A1A2"/><circle r="1.254" transform="matrix(-1 0 0 1 237.234 127.24)" fill="#A0A1A2"/><circle cx="257.297" cy="122.85" r="1.254" fill="#A0A1A2"/><circle r="1.254" transform="matrix(-1 0 0 1 239.113 122.85)" fill="#A0A1A2"/><circle cx="253.535" cy="119.717" r="1.254" fill="#A0A1A2"/><circle cx="253.535" cy="139.779" r="1.254" fill="#A0A1A2"/><circle cx="248.518" cy="141.033" r="1.254" fill="#A0A1A2"/><path fill-rule="evenodd" clip-rule="evenodd" d="M4.825 126.611C.31 126.36.227 121.909.75 119.715l6.27-47.332 35.524-7.943-1.673.418v.314l-.94 7.523-29.779 4.388v39.495c.314 1.254 1.756 3.574 5.016 2.821l45.45-12.851.94-2.195-24.006 6.489 4.572-36.58h-.002.003l1.25-10.008 64.577-14.44-4.389-33.225-3.448-5.642h-3.448V9.693h29.778V.916h5.016v8.776h-1.017v6.583h-22.883l.314 2.821h22.255v2.821h-3.134v57.049h-10.031l-5.015-29.152-3.448.627 5.642 33.54-6.269-2.508H93.456v3.135h14.419l25.076 18.18 6.583 15.986v11.285h3.448v-11.598l-7.21-16.613-20.688-16.3h67.156l4.702 18.808h20.374l18.181-22.882h34.793l2.821-7.837v-4.702l3.761-7.836h2.195l1.88 1.254V65.8l2.508 5.956 3.448 9.717 3.134 4.075v3.76l8.777 8.778-.627 1.253h-3.032L274.32 83.668h-44.197l-17.24 22.255v9.615c-.085.249-.164.492-.238.729h-22.882v8.463c0 3.762-3.971 5.12-5.956 5.329h-18.493v9.717h-18.808v-9.717h-11.911c-1.505-28.838-22.36-38.555-32.599-39.809H86.01l-9.09 3.448-4.389.94-2.513 3.388 4.944-15.614-5.955.94-2.195 17.868h.837l-2.327 3.136H61.56l-8.15 23.509h-3.447v3.761H30.842v-5.015H4.825zM39.84 74.902l-27.18 4.062v36.674c0 1.504 1.672 1.463 2.508 1.254l19.559-5.287 5.114-36.703zm252.032 34.156l-.907-1.312 5.998-3.39 1.567 2.194-8.15 5.015-.626 2.508-4.389-.627v-1.881c-9.78-17.302-28.315-21.42-36.36-21.315-16.468-.74-26.894 8.827-32.362 17.546v-1.873l15.673-19.747h38.868l12.538 17.553 5.642 7.836 2.508-2.507zm-157.04-92.783V9.693h31.108l1.519 6.582h-32.627zm0 2.821h33.278l8.174 35.42 4.363 1.493 6.218 25.464-.784.627h-.08l-.546.502-.157.125h-47.332v-60.81h-3.134v-2.821zm55.481 62.377l-6.545-24.396 4.428 1.515L191.33 82.1h-1.644l.627-.627zM79.351 90.877h.94l8.15-11.598 2.82-1.254 20.062-2.194v-1.567l-20.061 2.194-4.075 1.567-7.836 12.852zm58.692-70.527H163.2l7.569 59.556h-32.726V20.35zm1.881 1.88v55.795h28.71l-7.091-55.795h-21.619zm3.131 2.822h16.613v21.941h-5.016v20.688h-11.597v-42.63zm119.742 56.106l1.881-6.896.94-2.194 1.567-.313 1.568-2.508.94-1.254 5.015 12.225v1.254l-11.911-.314zm1.88-10.658l-.314-1.567 2.508-5.329 1.881-.627 1.253.94-.313 2.195-3.135 4.388h-1.88zM149.011 88.996h-2.506v40.749h2.506v7.521h13.165v-7.521h2.507V88.996h-15.672zm13.165 2.508h-13.164v8.15h13.164v-8.15zm0 10.657v7.524h-13.164v-7.524h13.164zm0 10.031h-13.164v7.523h13.164v-7.523zm0 10.03h-13.164v7.521h13.164v-7.521zM34.6 87.114h-2.507l-2.195 21.002 2.195-.627L34.6 87.114zm15.674-1.88l-5.642.628-2.507 19.12 6.269-1.567 1.88-18.18zm8.702-.626l5.642-.627-1.88 18.18-6.27 1.568 2.508-19.121zm9.09-7.21V74.89l21.629-1.881v2.507l-21.629 1.881z" fill="#A0A1A2"/></svg>
